<?xml version="1.0" encoding="UTF-8"?>
<map version="1.10" tiledversion="2026.09.14" orientation="orthogonal" renderorder="right-down" width="27" height="25" tilewidth="14" tileheight="14" infinite="0" nextlayerid="2" nextobjectid="1">
 <editorsettings>
  <export target="../src/client/ramirrors.json" format="json"/>
 </editorsettings>
 <tileset firstgid="1" source="gfx.tsx"/>
 <layer id="1" name="Tile Layer 1" width="27" height="25">
  <data encoding="csv">
29,12,12,12,12,12,12,12,12,12,12,12,12,5,12,12,12,12,12,12,12,12,12,12,12,12,11,
13,9,9,9,9,9,9,9,9,9,9,9,9,9,9,9,9,9,9,9,9,9,9,9,9,9,13,
13,9,9,9,9,9,9,9,9,9,9,9,9,9,9,9,9,9,9,9,9,9,9,9,9,9,13,
13,9,9,29,12,12,12,12,12,12,12,12,12,12,12,12,12,12,12,12,12,12,12,11,9,9,13,
13,9,9,13,9,9,9,9,9,9,9,9,9,9,9,9,9,9,9,9,9,9,9,13,9,9,13,
13,9,9,13,9,9,9,9,9,9,9,9,9,18,31,19,9,9,9,9,9,9,9,13,9,9,13,
13,21,21,13,9,9,9,9,9,9,9,9,9,9,9,9,9,9,9,9,9,9,9,13,21,21,13,
13,9,9,29,12,12,12,11,25,25,25,25,25,25,25,25,25,25,25,11,9,9,9,13,9,9,13,
13,9,9,13,9,31,9,13,10,10,10,10,10,10,10,10,10,10,10,13,9,9,9,13,9,9,13,
13,9,9,13,9,9,9,13,10,10,10,10,10,10,10,10,10,10,10,13,9,31,9,13,9,9,13,
13,9,9,13,9,9,9,13,10,10,10,10,10,10,10,10,10,10,10,13,9,9,9,13,9,9,13,
13,9,9,11,9,9,9,13,10,10,10,10,10,10,10,10,10,10,10,13,18,9,9,11,9,9,13,
13,9,24,19,9,9,9,8,10,10,10,10,10,10,10,10,10,10,10,8,9,9,9,18,9,9,13,
13,9,9,28,9,9,9,13,10,10,10,10,10,10,10,10,10,10,10,13,18,9,9,28,9,9,13,
13,9,9,13,9,9,9,13,10,10,10,10,10,10,10,10,10,10,10,13,9,9,9,13,9,9,13,
13,9,9,13,9,9,9,13,10,10,10,10,10,10,10,10,10,10,10,13,9,9,9,13,9,9,13,
13,9,9,13,9,9,9,13,10,10,10,10,10,10,10,10,10,10,10,13,9,9,9,13,9,9,13,
13,9,9,29,12,12,12,11,12,12,12,12,12,12,12,12,12,12,12,27,9,9,9,13,9,9,13,
13,9,9,13,9,31,9,9,9,9,9,9,9,9,9,9,9,9,9,9,9,9,9,13,9,9,13,
13,9,9,13,9,9,9,9,9,9,9,9,9,9,9,18,31,19,9,9,9,9,9,13,9,9,13,
13,9,9,13,9,9,9,9,9,9,9,9,9,9,9,9,9,9,9,9,9,9,9,13,9,9,13,
13,9,9,26,12,12,12,12,12,12,12,12,12,12,12,12,12,12,12,12,12,12,12,27,9,9,13,
13,9,9,9,9,9,9,9,9,9,9,9,9,9,9,9,9,9,9,9,9,9,9,9,9,9,13,
13,9,9,9,9,9,9,9,9,9,9,9,9,9,9,9,9,9,9,9,9,9,9,9,9,9,13,
26,12,12,12,12,12,12,12,12,12,12,12,12,5,12,12,12,12,12,12,12,12,12,12,12,12,27
</data>
 </layer>
</map>
