<?xml version="1.0" encoding="UTF-8"?>
<map version="1.10" tiledversion="2026.09.14" orientation="orthogonal" renderorder="right-down" width="18" height="16" tilewidth="14" tileheight="14" infinite="0" nextlayerid="3" nextobjectid="1">
 <editorsettings>
  <export target="../src/client/town.json" format="json"/>
 </editorsettings>
 <tileset firstgid="1" source="gfx.tsx"/>
 <layer id="1" name="Tile Layer 1" width="18" height="16">
  <data encoding="csv">
11,10,10,10,10,11,12,12,11,10,10,10,10,10,11,0,0,0,
13,10,10,10,10,13,9,9,13,10,10,10,10,10,13,0,0,0,
13,10,10,10,10,13,9,9,13,10,10,10,10,10,13,0,0,0,
13,10,10,10,10,13,9,9,13,10,10,10,10,10,11,12,12,11,
13,10,10,10,10,13,9,9,13,10,10,10,10,10,13,14,9,13,
13,10,10,10,10,13,9,9,13,10,10,10,10,10,13,9,9,13,
11,12,5,15,12,11,9,9,11,12,12,5,16,12,11,9,9,13,
13,9,9,9,9,9,9,9,9,9,9,9,9,9,9,9,9,13,
13,9,9,9,9,21,21,21,21,9,9,9,9,9,9,9,9,8,
13,9,9,9,9,21,9,9,21,9,9,9,9,9,9,9,9,13,
11,12,12,12,12,11,9,9,11,12,12,12,12,12,11,9,9,13,
0,0,0,0,0,13,9,9,13,0,0,0,0,0,13,9,9,13,
0,0,0,0,0,13,9,9,13,0,0,0,0,0,13,9,9,13,
0,0,0,0,0,13,9,9,13,0,0,0,0,0,11,12,12,11,
0,0,0,0,0,13,9,9,13,0,0,0,0,0,0,0,0,0,
0,0,0,0,0,11,22,22,11,0,0,0,0,0,0,0,0,0
</data>
 </layer>
</map>
